app/dist/common/images/mediaco.svg

<svg height="18" viewBox="0 0 18 18" width="18" xmlns="http://www.w3.org/2000/svg"><path d="m0 0h18v18h-18z" fill="#f0f3fa"/><path d="m4 12v-6h1.71l1.41 3.01 1.16-3.01h1.72v6h-1.65v-2.5l-1.11 2.5h-.25l-1.34-2.5v2.5zm11-1h-4v1h4z"/></svg>

<!-- by TradingView --><svg xmlns="http://www.w3.org/2000/svg" width="18" height="18" viewBox="0 0 18 18"><path fill="#F0F3FA" d="M0 0h18v18H0z"/><path d="M4 12V6h1.71l1.41 3.01L8.28 6H10v6H8.35V9.5L7.24 12h-.25L5.65 9.5V12H4zm11-1h-4v1h4v-1z"/></svg>
